svg/fluentui-system-icons/ic_fluent_full_screen_maximize_20_filled.svg

<svg width="20" height="20" viewBox="0 0 20 20" fill="none" xmlns="http://www.w3.org/2000/svg">
<path d="M3 5.25C3 4.00736 4.00736 3 5.25 3H7.11538C7.5296 3 7.86538 3.33579 7.86538 3.75C7.86538 4.16421 7.5296 4.5 7.11538 4.5H5.25C4.83579 4.5 4.5 4.83579 4.5 5.25V7.11538C4.5 7.5296 4.16421 7.86538 3.75 7.86538C3.33579 7.86538 3 7.5296 3 7.11538V5.25ZM12.1346 3.75C12.1346 3.33579 12.4704 3 12.8846 3H14.75C15.9926 3 17 4.00736 17 5.25V7.11538C17 7.5296 16.6642 7.86538 16.25 7.86538C15.8358 7.86538 15.5 7.5296 15.5 7.11538V5.25C15.5 4.83579 15.1642 4.5 14.75 4.5H12.8846C12.4704 4.5 12.1346 4.16421 12.1346 3.75ZM3.75 12.1346C4.16421 12.1346 4.5 12.4704 4.5 12.8846V14.75C4.5 15.1642 4.83579 15.5 5.25 15.5H7.11538C7.5296 15.5 7.86538 15.8358 7.86538 16.25C7.86538 16.6642 7.5296 17 7.11538 17H5.25C4.00736 17 3 15.9926 3 14.75V12.8846C3 12.4704 3.33579 12.1346 3.75 12.1346ZM16.25 12.1346C16.6642 12.1346 17 12.4704 17 12.8846V14.75C17 15.9926 15.9926 17 14.75 17H12.8846C12.4704 17 12.1346 16.6642 12.1346 16.25C12.1346 15.8358 12.4704 15.5 12.8846 15.5H14.75C15.1642 15.5 15.5 15.1642 15.5 14.75V12.8846C15.5 12.4704 15.8358 12.1346 16.25 12.1346Z" fill="#212121"/>
</svg>

<svg xmlns="http://www.w3.org/2000/svg" width="20" height="20"><path d="M3 5.25A2.25 2.25 0 0 1 5.25 3h1.865a.75.75 0 1 1 0 1.5H5.25a.75.75 0 0 0-.75.75v1.865a.75.75 0 1 1-1.5 0V5.25Zm9.135-1.5a.75.75 0 0 1 .75-.75h1.865A2.25 2.25 0 0 1 17 5.25v1.865a.75.75 0 0 1-1.5 0V5.25a.75.75 0 0 0-.75-.75h-1.865a.75.75 0 0 1-.75-.75ZM3.75 12.135a.75.75 0 0 1 .75.75v1.865c0 .414.336.75.75.75h1.865a.75.75 0 0 1 0 1.5H5.25A2.25 2.25 0 0 1 3 14.75v-1.865a.75.75 0 0 1 .75-.75Zm12.5 0a.75.75 0 0 1 .75.75v1.865A2.25 2.25 0 0 1 14.75 17h-1.865a.75.75 0 0 1 0-1.5h1.865a.75.75 0 0 0 .75-.75v-1.865a.75.75 0 0 1 .75-.75Z"/></svg>
